X: 16
T: Missa Se la face ay pale / Kyrie
N: Derived from Duf1005a-Missa_Se_la_face_ay_pale-Kyrie.krn
C: Guillaume Du Fay
%%abc-version 2.0
%%abcx-abcm2ps-target-version 5.9.1 (29 Sep 2008)
%%abc-creator hum2abc beta
%%abcx-conversion-date 2019/02/16 20:31:46
%%abc-edited-by Jesse Rodin
%%abc-edited-by Jesse Rodin 8/28/2013
%%abcx-initial-encoding-date 2013/11/21/
%%humdrum-veritas 358085461
%%humdrum-veritas-data 3405194981
%%linebreak <none>
%%barnumbers 0
L: 1/4
M: 3/1
Q: 1/2=120
%%staves [1 2 3 4]
V: 1 clef=treble
V: 2 clef=treble-8
V: 3 clef=treble-8
V: 4 clef=bass
K: C
[V:1] c6B2A2G2 | 
[V:2] c12 | 
[V:3] c12- | 
[V:4] C,12- | 
[V:1] G4A2G2E4 | 
[V:2] e8g4 | 
[V:3] c4c8 | 
[V:4] C,12 | 
[V:1] D4z4G4- | 
[V:2] g6f2d4 | 
[V:3] B12- | 
[V:4] G,8G,4 | 
[V:1] G4A2B2c4- | 
[V:2] e4c4f4- | 
[V:3] B4A8 | 
[V:4] E,4F,6G,2 | 
[V:1] c2A2B4G4 | 
[V:2] f2e2g8 | 
[V:3] c4d4e4- | 
[V:4] A,4G,4C4- | 
[V:1] c6B2B2A2 | 
[V:2] g4z4z4 | 
[V:3] e4f8 | 
[V:4] C4D8 | 
[V:1] c4z4B4 | 
[V:2] g12 | 
[V:3] e8d4- | 
[V:4] C8G,4 | 
[V:1] A2d4c2B3A | 
[V:2] ^f8g4 | 
[V:3] d12 | 
[V:4] z4z4G,4 | 
[V:1] c4G4z2G2 | 
[V:2] e8e4 | 
[V:3] c8G4 | 
[V:4] C,6D,2E,4 | 
[V:1] F2A4G2F4 | 
[V:2] c4d8 | 
[V:3] A8B4 | 
[V:4] F,4D,8 | 
[V:1] E4F4G4 | 
[V:2] G4A4G4 | 
[V:3] c12- | 
[V:4] C,4F,4E,2C,2 | 
[V:1] c3BG2A2BAGF | 
[V:2] z2g2e2c2d4 | 
[V:3] c4z8 | 
[V:4] C,8B,,4 | 
[V:1] E4z4z4 | 
[V:2] c12 | 
[V:3] g12- | 
[V:4] C,12 | 
[V:1] D8G4 & B8x4 | 
[V:2] G12 | 
[V:3] g4g8 | 
[V:4] z12 | 
[V:1] A6B2c4 | 
[V:2] z12 | 
[V:3] c12- | 
[V:4] F,6G,2A,4 | 
[V:1] A4G8 | 
[V:2] z4d4e4 | 
[V:3] c4B8 | 
[V:4] F,4G,4E,4 | 
[V:1] c4B6A2 | 
[V:2] f4g8 | 
[V:3] c4d4e4 | 
[V:4] A,4G,8 | 
[V:1] A8G4 | 
[V:2] c4A4B3G | 
[V:3] f4d8 | 
[V:4] F,8G,4 | 
[V:1] E3FG2A4G2 | 
[V:2] G4z4z4 | 
[V:3] c12- | 
[V:4] C,6F,4G,2 | 
[V:1] F2E3DD4^C2 | 
[V:2] z2c2B2A4G2 | 
[V:3] c4z4z4 | 
[V:4] A,4G,2F,2E,4 | 
[V:1] D12 | 
[V:2] A8d2e2 | 
[V:3] a8a4 | 
[V:4] D,12 | 
[V:1] z12 | 
[V:2] f8f4 | 
[V:3] a8a4 | 
[V:4] D12 | 
[V:1] z12 | 
[V:2] d8e4 | 
[V:3] g12- | 
[V:4] G,12 | 
[V:1] z4d4c4 | 
[V:2] e4d2g4^f2 | 
[V:3] g4z4c4 | 
[V:4] C4B,2G,2A,4 | 
[V:1] B8A4 | 
[V:2] g8c4 | 
[V:3] d4e4f4- | 
[V:4] G,8F,4 | 
[V:1] A6G2F4 | 
[V:2] d2c2A8 | 
[V:3] f4d8 | 
[V:4] D,8F,2G,2 | 
[V:1] E4A2B2c4 | 
[V:2] z4f6e2 | 
[V:3] c8z4 | 
[V:4] A,12 | 
[V:1] B2d4c2B4 | 
[V:2] g12 | 
[V:3] z4d8 | 
[V:4] G,12 | 
[V:1] A4z4d4- | 
[V:2] e8d4 | 
[V:3] c8G4 | 
[V:4] A,8B,4- | 
[V:1] d4e4c4 | 
[V:2] g2f2e6d2 | 
[V:3] z4g4g4 | 
[V:4] B,4C8 | 
[V:1] B2c2d4c2A2 | 
[V:2] d8z4 | 
[V:3] g4g4c4- | 
[V:4] G,8A,4 | 
[V:1] A4G2G4F2 | 
[V:2] z4G8 | 
[V:3] c4z4d4 | 
[V:4] F,4_B,8 | 
[V:1] A4z4G4- | 
[V:2] e4f4d4- | 
[V:3] c8_B4- | 
[V:4] A,4F,4G,4 | 
[V:1] G4F2G2A4 | 
[V:2] d4d4c2d2 | 
[V:3] B4A8 | 
[V:4] z4D,4F,4 | 
[V:1] B4c3BG4 | 
[V:2] e12 | 
[V:3] G8z4 | 
[V:4] E,4C,8 | 
[V:1] A2G3FF4E2 | 
[V:2] e4c2c4B2 | 
[V:3] z12 | 
[V:4] C4A,2F,2G,4 | 
[V:1] F12 ||  
[V:2] c12 ||  
[V:3] A6B2c4 ||  
[V:4] F,12 ||  
[V:1]  [K:C] [K:clef=treble][M:4/2]c6B2 | 
[V:2]  [K:C] [K:clef=treble-8][M:4/2]f8 | 
[V:3]  [K:C] [K:clef=treble-8][M:4/2]z8 | 
[V:4]  [K:C] [K:clef=bass][M:4/2]z8 | 
[V:1] A4G4- | 
[V:2] f4e4 | 
[V:3] z8 | 
[V:4] z8 | 
[V:1] G4c4- | 
[V:2] c8 | 
[V:3] z8 | 
[V:4] z8 | 
[V:1] c2B2c4 | 
[V:2] e8 | 
[V:3] z8 | 
[V:4] z8 | 
[V:1] d4e4- | 
[V:2] f4g4 | 
[V:3] z8 | 
[V:4] z8 | 
[V:1] e2d2c4 | 
[V:2] c8 | 
[V:3] z8 | 
[V:4] z8 | 
[V:1] B4c2d2- | 
[V:2] G4A2B2- | 
[V:3] z8 | 
[V:4] z8 | 
[V:1] d2e4c2 | 
[V:2] B2A2c2e2 | 
[V:3] z8 | 
[V:4] z8 | 
[V:1] d2A2B3A | 
[V:2] d8 | 
[V:3] z8 | 
[V:4] z8 | 
[V:1] c8 | 
[V:2] c8 | 
[V:3] z8 | 
[V:4] z8 | 
[V:1] z8 | 
[V:2] z4f4 | 
[V:3] z8 | 
[V:4] F,8 | 
[V:1] z8 | 
[V:2] e2c2d4 | 
[V:3] z8 | 
[V:4] A,4B,4 | 
[V:1] z8 | 
[V:2] e2f2g4 | 
[V:3] z8 | 
[V:4] C6B,2 | 
[V:1] z8 | 
[V:2] e2f2d4 | 
[V:3] z8 | 
[V:4] C2D4B,2 | 
[V:1] z8 | 
[V:2] c2f4e2 | 
[V:3] z8 | 
[V:4] C2A,2G,4 | 
[V:1] z8 | 
[V:2] f2g2a4- | 
[V:3] z8 | 
[V:4] F,8- | 
[V:1] z8 | 
[V:2] a2f2g4 | 
[V:3] z8 | 
[V:4] F,4E,4 | 
[V:1] z8 | 
[V:2] f3ed2c2- | 
[V:3] z8 | 
[V:4] F,8 | 
[V:1] z8 | 
[V:2] cBAGG2c2 | 
[V:3] z8 | 
[V:4] C,4E,4 | 
[V:1] z8 | 
[V:2] d2A2B3A | 
[V:3] z8 | 
[V:4] D,8 | 
[V:1] z4G4- | 
[V:2] c8 | 
[V:3] z8 | 
[V:4] C,8 | 
[V:1] G4E2F2 | 
[V:2] z8 | 
[V:3] z8 | 
[V:4] G,4A,4 | 
[V:1] D4C4 | 
[V:2] z8 | 
[V:3] z8 | 
[V:4] B,4C4- | 
[V:1] G4A4 | 
[V:2] z8 | 
[V:3] z8 | 
[V:4] C4C4 | 
[V:1] B4c4- | 
[V:2] z8 | 
[V:3] z8 | 
[V:4] D4C4 | 
[V:1] c4c4 | 
[V:2] z8 | 
[V:3] z8 | 
[V:4] A,8 | 
[V:1] d4c4 | 
[V:2] z8 | 
[V:3] z8 | 
[V:4] G,4A,4- | 
[V:1] A8 | 
[V:2] z8 | 
[V:3] z8 | 
[V:4] A,2F,2F,4 | 
[V:1] G4A4- | 
[V:2] z8 | 
[V:3] z8 | 
[V:4] E,4F,4 | 
[V:1] A2F2F4 | 
[V:2] z8 | 
[V:3] z8 | 
[V:4] D,8 | 
[V:1] E4C2D2 | 
[V:2] z8 | 
[V:3] z8 | 
[V:4] C,4F,4 | 
[V:1] E2F2A2G2- | 
[V:2] z8 | 
[V:3] z8 | 
[V:4] C,2D,4E,2 | 
[V:1] GFF4E2 | 
[V:2] z8 | 
[V:3] z8 | 
[V:4] F,2A,2G,4 | 
[V:1] F4z2E2 | 
[V:2] c4B2c2- | 
[V:3] z8 | 
[V:4] F,4G,2A,2- | 
[V:1] F2G2A4 | 
[V:2] c2d2e4 | 
[V:3] z8 | 
[V:4] A,2B,2C4 | 
[V:1] _B2G2A4- | 
[V:2] f2d2e4 | 
[V:3] z8 | 
[V:4] D2B,2C4 | 
[V:1] A4G4- | 
[V:2] f4d4- | 
[V:3] z8 | 
[V:4] F,4_B,4- | 
[V:1] G2F2F4- | 
[V:2] d2c2c4 | 
[V:3] z8 | 
[V:4] B,4A,4 | 
[V:1] F2E2E2D2 | 
[V:2] B6A2 | 
[V:3] z8 | 
[V:4] G,8 | 
[V:1] F8 ||  
[V:2] c8 ||  
[V:3] z8 ||  
[V:4] F,8 ||  
[V:1]  [K:C] [K:clef=treble][M:3/1]c8c4 | 
[V:2]  [K:C] [K:clef=treble-8][M:3/1]f4g2a4g2 | 
[V:3]  [K:C] [K:clef=treble-8][M:3/1]c12- | 
[V:4]  [K:C] [K:clef=bass][M:3/1]F,4E,2F,4G,2 | 
[V:1] A4B6G2 | 
[V:2] e2f2g2d2e3d | 
[V:3] c4B8 | 
[V:4] A,4G,8 | 
[V:1] A4G2c3BA2 | 
[V:2] f4e4c4 | 
[V:3] c12- | 
[V:4] F,4C,4F,4 | 
[V:1] G4F8 | 
[V:2] G4A2B4A2 | 
[V:3] c4d8 | 
[V:4] E,4D,8 | 
[V:1] G8z4 | 
[V:2] c6d2e4 | 
[V:3] e8c4- | 
[V:4] C,12 | 
[V:1] G4A8 | 
[V:2] e4f2d4c2 | 
[V:3] c4z4z4 | 
[V:4] z4F,8 | 
[V:1] B4c2e4d2 | 
[V:2] e8g3f | 
[V:3] g4g4e4 | 
[V:4] E,4C,8 | 
[V:1] B3Ac2c3BAG | 
[V:2] d4e6c2 | 
[V:3] f4g8 | 
[V:4] D,4C,8 | 
[V:1] G4z4G4 | 
[V:2] e4d4e2f2 | 
[V:3] z4z4c4- | 
[V:4] C,4B,,4C,4- | 
[V:1] c4B6A2 | 
[V:2] g12 | 
[V:3] c4d4e4 | 
[V:4] C,4G,8 | 
[V:1] A6G2E2F2 | 
[V:2] c8z4 | 
[V:3] f4e4c4 | 
[V:4] F,4A,8 | 
[V:1] G4E2C2D4 | 
[V:2] z12 | 
[V:3] G4A4B4 | 
[V:4] B,4C4G,4 | 
[V:1] E4C4G4 | 
[V:2] G6c6 | 
[V:3] c4e8 | 
[V:4] C,12- | 
[V:1] E4C4G4- | 
[V:2] G6c6 | 
[V:3] c4g4e4 | 
[V:4] C,12- | 
[V:1] G4E2C4G2- | 
[V:2] G4g4e4 | 
[V:3] c4z4g4 | 
[V:4] C,12 | 
[V:1] G2c2B4A2d2- | 
[V:2] c4G4d4 | 
[V:3] e4g4f4 | 
[V:4] z12 | 
[V:1] dcc2B3Ac4 | 
[V:2] G8g4 | 
[V:3] d8c4- | 
[V:4] z12 | 
[V:1] z4F3GA2B2 | 
[V:2] g4a4f4 | 
[V:3] c4z4d4 | 
[V:4] C,4F,6G,2 | 
[V:1] c6B2A4 | 
[V:2] e8c2d2 | 
[V:3] c4A8 | 
[V:4] A,2B,2C4F,4 | 
[V:1] G4A4F4 | 
[V:2] e4f4d2c2 | 
[V:3] B4c4A4 | 
[V:4] G,4F,8 | 
[V:1] G4z2A4G2 | 
[V:2] e8c4- | 
[V:3] G4c8 | 
[V:4] C,8F,2E,2 | 
[V:1] G4F2G2A4- | 
[V:2] c4A8 | 
[V:3] e4d8 | 
[V:4] C,4D,6E,2 | 
[V:1] A2B2c4A3F | 
[V:2] z4A8- | 
[V:3] c12- | 
[V:4] F,12 | 
[V:1] F2E2C2F4E2 | 
[V:2] A8G4 | 
[V:3] c12- | 
[V:4] F,2C,2F,4C,4 | 
[V:1] F12 |]  
[V:2] A6F2F4 |]  
[V:3] c12 |]  
[V:4] F,12 |]  



